public/assets/logo/logo.svg

<svg width="81" height="21" viewBox="0 0 81 21" fill="none" xmlns="http://www.w3.org/2000/svg">
<circle cx="10.5" cy="10.5" r="10.5" fill="#6366F1"/>
<path d="M13.7492 7.51072H16.125V8.42174C16.125 9.65732 15.1193 10.656 13.8751 10.656H13.7492V7.51072ZM10.3681 6.18752H13.7492V14.7875H13.3469C10.896 14.7875 10.4057 13.0901 10.4057 11.5796L10.3681 6.18752ZM4.875 8.13483C4.875 9.66997 5.98101 10.2318 7.21286 10.419H4.875V14.8125H7.12494C9.38761 14.8125 9.65138 13.8139 9.65138 12.8652C9.65138 11.7043 8.84703 10.8932 7.60245 10.581H9.65138V6.18752H7.40144C5.13908 6.18752 4.875 7.18616 4.875 8.13483Z" fill="white"/>
<path d="M34.6023 17.0919C33.2114 17.0919 31.9983 16.8089 30.9632 16.2428C29.9281 15.6767 29.1194 14.9004 28.5372 13.9138C27.9549 12.9272 27.6638 11.7951 27.6638 10.5174C27.6638 9.53076 27.8256 8.62504 28.149 7.80019C28.4725 6.97533 28.9254 6.2637 29.5076 5.66527C30.0899 5.05068 30.7772 4.58164 31.5697 4.25817C32.3784 3.91853 33.2518 3.7487 34.1899 3.7487C35.0632 3.7487 35.8719 3.91044 36.6159 4.23391C37.3599 4.54121 37.9987 4.98598 38.5325 5.56823C39.0824 6.13431 39.5029 6.80551 39.794 7.58184C40.0851 8.35818 40.2145 9.20729 40.1822 10.1292L40.1579 11.1966H29.8473L29.2893 9.08599H37.3195L36.9313 9.52267V8.98895C36.8989 8.55226 36.7534 8.15601 36.4946 7.80019C36.252 7.44437 35.9366 7.16942 35.5484 6.97533C35.1603 6.78125 34.7236 6.68421 34.2384 6.68421C33.5267 6.68421 32.9202 6.82169 32.4189 7.09664C31.9336 7.37159 31.5617 7.77593 31.3029 8.30966C31.0441 8.84338 30.9147 9.49033 30.9147 10.2505C30.9147 11.0268 31.0764 11.698 31.3999 12.2641C31.7396 12.8302 32.2086 13.2749 32.807 13.5984C33.4216 13.9057 34.1413 14.0594 34.9662 14.0594C35.5323 14.0594 36.0498 13.9704 36.5189 13.7925C36.9879 13.6146 37.4893 13.3073 38.023 12.8706L39.6727 15.1753C39.2037 15.5959 38.6861 15.9517 38.12 16.2428C37.554 16.5178 36.9717 16.728 36.3733 16.8736C35.7749 17.0191 35.1845 17.0919 34.6023 17.0919Z" fill="#334155"/>
<path d="M47.5316 17.0919C46.4641 17.0919 45.5018 16.8008 44.6446 16.2185C43.7874 15.6363 43.1081 14.8438 42.6067 13.841C42.1053 12.8383 41.8546 11.6899 41.8546 10.396C41.8546 9.10216 42.1053 7.96192 42.6067 6.97533C43.1243 5.97257 43.8197 5.18815 44.6931 4.62208C45.5665 4.03983 46.5611 3.7487 47.6771 3.7487C48.3079 3.7487 48.8821 3.84574 49.3996 4.03983C49.9333 4.21774 50.3943 4.46843 50.7825 4.7919C51.1868 5.11537 51.5264 5.48736 51.8014 5.90788C52.0763 6.32839 52.2704 6.78125 52.3836 7.26646L51.6558 7.14516V4.01557H55.0765V16.8493H51.6073V13.7682L52.3836 13.6955C52.2542 14.1483 52.044 14.5769 51.7529 14.9813C51.4617 15.3856 51.0978 15.7495 50.6611 16.073C50.2406 16.3803 49.7635 16.631 49.2298 16.8251C48.6961 17.003 48.13 17.0919 47.5316 17.0919ZM48.4777 14.1079C49.1247 14.1079 49.6907 13.9542 50.1759 13.6469C50.6611 13.3396 51.0331 12.911 51.2919 12.3611C51.5669 11.7951 51.7043 11.14 51.7043 10.396C51.7043 9.66824 51.5669 9.02938 51.2919 8.47948C51.0331 7.92958 50.6611 7.50098 50.1759 7.19368C49.6907 6.87021 49.1247 6.70847 48.4777 6.70847C47.8469 6.70847 47.289 6.87021 46.8037 7.19368C46.3347 7.50098 45.9627 7.92958 45.6878 8.47948C45.4128 9.02938 45.2753 9.66824 45.2753 10.396C45.2753 11.14 45.4128 11.7951 45.6878 12.3611C45.9627 12.911 46.3347 13.3396 46.8037 13.6469C47.289 13.9542 47.8469 14.1079 48.4777 14.1079Z" fill="#334155"/>
<path d="M58.5304 16.8493V4.01557H61.8541L61.9754 8.13983L61.3932 7.29072C61.5872 6.6276 61.9026 6.02918 62.3393 5.49545C62.776 4.94555 63.2855 4.51695 63.8677 4.20965C64.4661 3.90235 65.0888 3.7487 65.7358 3.7487C66.0107 3.7487 66.2776 3.77296 66.5364 3.82148C66.7951 3.87 67.0135 3.92661 67.1914 3.99131L66.2695 7.77593C66.0754 7.67889 65.8409 7.59802 65.5659 7.53332C65.291 7.45246 65.0079 7.41202 64.7168 7.41202C64.3287 7.41202 63.9647 7.4848 63.6251 7.63036C63.3016 7.75975 63.0186 7.95384 62.776 8.21261C62.5334 8.45522 62.3393 8.74634 62.1937 9.08599C62.0644 9.42563 61.9997 9.79763 61.9997 10.202V16.8493H58.5304Z" fill="#334155"/>
<path d="M69.168 16.8493V4.01557H72.4674L72.5645 6.63569L71.8852 6.92681C72.0631 6.34456 72.3785 5.81892 72.8314 5.34989C73.3004 4.86468 73.8584 4.47651 74.5053 4.18539C75.1523 3.89427 75.8316 3.7487 76.5432 3.7487C77.5136 3.7487 78.3223 3.94279 78.9692 4.33095C79.6323 4.71912 80.1256 5.30945 80.4491 6.10196C80.7888 6.87829 80.9586 7.84062 80.9586 8.98895V16.8493H77.5136V9.25581C77.5136 8.67356 77.4327 8.18835 77.271 7.80019C77.1093 7.41202 76.8586 7.12898 76.5189 6.95107C76.1955 6.75699 75.7911 6.67612 75.3059 6.70847C74.9177 6.70847 74.5538 6.77316 74.2142 6.90255C73.8907 7.01577 73.6077 7.18559 73.3651 7.41202C73.1387 7.63845 72.9527 7.89723 72.8071 8.18835C72.6777 8.47948 72.613 8.79486 72.613 9.13451V16.8493H70.9148C70.5428 16.8493 70.2112 16.8493 69.9201 16.8493C69.629 16.8493 69.3783 16.8493 69.168 16.8493Z" fill="#334155"/>
<path d="M36.1382 0.954529L35.0091 5.84527" stroke="#334155" stroke-width="3"/>
<path d="M32.4789 14.3396L31.1616 20.0455" stroke="#334155" stroke-width="3"/>
</svg>

<svg width="81" height="21" fill="none" xmlns="http://www.w3.org/2000/svg"><circle cx="10.5" cy="10.5" r="10.5" fill="#6366F1"/><path d="M13.75 7.51h2.375v.912a2.24 2.24 0 01-2.25 2.234h-.126V7.511zm-3.382-1.322h3.381v8.6h-.402c-2.451 0-2.941-1.698-2.941-3.208l-.038-5.392zM4.875 8.135c0 1.535 1.106 2.097 2.338 2.284H4.875v4.393h2.25c2.263 0 2.526-.998 2.526-1.947 0-1.16-.804-1.972-2.049-2.284h2.05V6.188h-2.25c-2.263 0-2.527.998-2.527 1.947z" fill="#fff"/><path d="M34.602 17.092c-1.39 0-2.604-.283-3.639-.85a6.225 6.225 0 01-2.426-2.328c-.582-.987-.873-2.119-.873-3.397 0-.986.162-1.892.485-2.717a6.344 6.344 0 011.359-2.135 5.855 5.855 0 012.062-1.407 6.698 6.698 0 012.62-.51c.873 0 1.682.162 2.426.486a5.323 5.323 0 011.916 1.334c.55.566.97 1.238 1.262 2.014.291.776.42 1.625.388 2.547l-.024 1.068h-10.31l-.559-2.111h8.03l-.388.437v-.534a2.269 2.269 0 00-.436-1.189 2.455 2.455 0 00-.947-.825 2.888 2.888 0 00-1.31-.29c-.711 0-1.318.137-1.82.412-.484.275-.856.679-1.115 1.213-.259.533-.388 1.18-.388 1.94 0 .777.161 1.448.485 2.014.34.566.809 1.01 1.407 1.334.615.308 1.334.461 2.16.461.565 0 1.083-.089 1.552-.266.469-.178.97-.486 1.504-.922l1.65 2.304c-.47.42-.987.777-1.553 1.068a8.687 8.687 0 01-1.747.63 7.477 7.477 0 01-1.77.219zM47.532 17.092a5.02 5.02 0 01-2.887-.873c-.858-.583-1.537-1.375-2.038-2.378-.502-1.003-.752-2.151-.752-3.445s.25-2.434.752-3.42c.517-1.003 1.213-1.788 2.086-2.354.873-.582 1.868-.873 2.984-.873.63 0 1.205.097 1.723.29.533.179.994.43 1.383.753A4.76 4.76 0 0151.8 5.908c.275.42.47.873.583 1.358l-.728-.12v-3.13h3.42v12.833h-3.469v-3.08l.777-.074c-.13.453-.34.882-.631 1.286a4.993 4.993 0 01-1.092 1.092c-.42.307-.898.558-1.431.752-.534.178-1.1.267-1.698.267zm.946-2.984c.647 0 1.213-.154 1.698-.461a2.99 2.99 0 001.116-1.286c.275-.566.412-1.221.412-1.965 0-.728-.137-1.367-.412-1.917a2.99 2.99 0 00-1.116-1.285c-.485-.324-1.051-.486-1.698-.486-.631 0-1.189.162-1.674.486a3.217 3.217 0 00-1.116 1.285c-.275.55-.413 1.19-.413 1.917 0 .744.138 1.4.413 1.965.275.55.647.979 1.116 1.286.485.307 1.043.46 1.674.46zM58.53 16.85V4.015h3.324l.121 4.124-.582-.85c.194-.662.51-1.26.946-1.795.437-.55.947-.978 1.529-1.285a4.039 4.039 0 011.868-.461c.275 0 .542.024.8.072.26.049.477.106.655.17l-.922 3.785a3.239 3.239 0 00-.703-.243 2.994 2.994 0 00-.85-.121c-.387 0-.751.073-1.09.218-.324.13-.607.324-.85.583a2.754 2.754 0 00-.582.873c-.13.34-.194.712-.194 1.116v6.647h-3.47zM69.168 16.85V4.015h3.3l.096 2.62-.679.29a3.888 3.888 0 01.946-1.576 5.36 5.36 0 011.674-1.165 4.912 4.912 0 012.038-.436c.97 0 1.78.194 2.426.582.663.388 1.157.978 1.48 1.771.34.776.51 1.739.51 2.887v7.86h-3.445V9.256c0-.582-.081-1.068-.243-1.456-.162-.388-.412-.671-.752-.849-.324-.194-.728-.275-1.213-.243a3.04 3.04 0 00-1.092.195 2.382 2.382 0 00-.849.509 2.967 2.967 0 00-.558.776c-.13.291-.194.607-.194.947v7.714H69.168z" fill="#334155"/><path d="M36.138.955l-1.129 4.89M32.479 14.34l-1.317 5.706" stroke="#334155" stroke-width="3"/></svg>
